X: 319
T:Race Classic, The
M:2/4
L:1/8
Q:320
C:Willie Hunter
R:polka
D:North Cregg; mi.da:za
Z:Devin McCabe
K:A
~A3 E|FA FE|FB BA/2B/2|cB Bc/2B/2|
!~A3 E|FA FE|FB BA/2B/2|1cA Ac/2B/2:|2cA A/2B/2c/2d/2|
!:~e3 A|~f3 B/2c/2|Bf Bf|~g3 c/2d/2|
!cg cg|ab/2a/2 gf|ec BA/2B/2|1c/2B/2A Aa/2f/2:|2c/2B/2A cB||
